X: 239
T:Casper's Songs. JaW.238
M:2/4
Q:50
C:"J.... Figure"
S:James Winder Ms, Lancashire, 1835-41
R:Air
O:England
A:Wyresdale,Lancashire
N:"Figure" of a quadrille
H:1/8
Z:vmp.Chris Partington, Aug 2004
K:G
e2e2|ed/c/ Bc|B2z2|B2e2|^dd/e/ ff|G4|!
^def gB/c/|~d4|G2e2|db~e2|.d.bz2|!
Bd cf|gdb2|Bd ce|gdb2|g3f/e/|(d/e/d/c/) (B/c/B/A/)|!
G/A/B/c/ d2|e3f|g3f/e/|(d/e/d/c/) B/c/B/A/)|G/A/B/c/ ~d2|\
z2~e2|db ~e2|dbz2|~B4|eEz2
